app/clientComponent/section6_contact/images/top.svg

<svg width="354" height="71" viewBox="0 0 354 71" fill="none" xmlns="http://www.w3.org/2000/svg">
<path d="M20.2991 51.28C18.8524 51.28 17.1724 51.21 15.2591 51.07C14.5591 51.0233 13.6724 50.9767 12.5991 50.93C11.5257 50.8833 10.3124 50.86 8.95906 50.86L3.98906 50.93C3.1024 50.9767 1.86573 51 0.279063 51C0.185729 51 0.139063 50.86 0.139063 50.58C0.139063 50.3 0.185729 50.16 0.279063 50.16C1.86573 50.16 3.00906 50.0433 3.70906 49.81C4.45573 49.5767 4.96906 49.1333 5.24906 48.48C5.52906 47.78 5.66906 46.73 5.66906 45.33V12.92C5.66906 11.52 5.52906 10.4933 5.24906 9.84C5.01573 9.18666 4.52573 8.74333 3.77906 8.51C3.0324 8.23 1.88906 8.09 0.349062 8.09C0.255729 8.09 0.209063 7.95 0.209063 7.67C0.209063 7.39 0.255729 7.25 0.349062 7.25L4.05906 7.32C6.1124 7.41333 7.74573 7.46 8.95906 7.46C10.8257 7.46 12.7157 7.39 14.6291 7.25C16.9624 7.15667 18.5257 7.11 19.3191 7.11C24.0791 7.11 28.3024 8.04333 31.9891 9.91C35.6757 11.7767 38.5224 14.32 40.5291 17.54C42.5824 20.76 43.6091 24.3767 43.6091 28.39C43.6091 32.9167 42.5591 36.93 40.4591 40.43C38.3591 43.8833 35.5357 46.5667 31.9891 48.48C28.4424 50.3467 24.5457 51.28 20.2991 51.28ZM19.5991 49.88C22.8191 49.88 25.6657 49.11 28.1391 47.57C30.6591 46.03 32.6191 43.7667 34.0191 40.78C35.4191 37.7467 36.1191 34.13 36.1191 29.93C36.1191 25.9167 35.4424 22.3 34.0891 19.08C32.7824 15.8133 30.9157 13.2467 28.4891 11.38C26.0624 9.46666 23.2391 8.51 20.0191 8.51C18.0591 8.51 16.5424 8.62666 15.4691 8.86C14.3957 9.09333 13.6024 9.53667 13.0891 10.19C12.6224 10.7967 12.3891 11.7533 12.3891 13.06V44.56C12.3891 46.4733 12.8791 47.85 13.8591 48.69C14.8391 49.4833 16.7524 49.88 19.5991 49.88ZM63.2293 51.91C60.4293 51.91 57.956 51.2567 55.8093 49.95C53.6626 48.5967 52.006 46.8 50.8393 44.56C49.6726 42.2733 49.0893 39.8 49.0893 37.14C49.0893 34.1067 49.836 31.54 51.3293 29.44C52.8693 27.2933 54.806 25.7067 57.1393 24.68C59.5193 23.6067 61.946 23.07 64.4193 23.07C67.266 23.07 69.7393 23.7467 71.8393 25.1C73.986 26.4533 75.6193 28.25 76.7393 30.49C77.8593 32.6833 78.4193 35.04 78.4193 37.56C78.4193 40.36 77.7193 42.8567 76.3193 45.05C74.966 47.2433 73.1226 48.9467 70.7893 50.16C68.456 51.3267 65.936 51.91 63.2293 51.91ZM65.3293 50.51C67.3826 50.51 68.946 49.6 70.0193 47.78C71.1393 45.96 71.6993 43.3 71.6993 39.8C71.6993 36.6733 71.256 33.9433 70.3693 31.61C69.5293 29.2767 68.3626 27.5033 66.8693 26.29C65.4226 25.0767 63.836 24.47 62.1093 24.47C60.0093 24.47 58.4226 25.3333 57.3493 27.06C56.276 28.7867 55.7393 31.33 55.7393 34.69C55.7393 37.7233 56.136 40.4533 56.9293 42.88C57.7693 45.26 58.9126 47.1267 60.3593 48.48C61.8526 49.8333 63.5093 50.51 65.3293 50.51ZM116.102 50.16C116.242 50.16 116.312 50.3 116.312 50.58C116.312 50.86 116.242 51 116.102 51C114.936 51 114.026 50.9767 113.372 50.93L109.312 50.86L105.322 50.93C104.622 50.9767 103.689 51 102.522 51C102.382 51 102.312 50.86 102.312 50.58C102.312 50.3 102.382 50.16 102.522 50.16C104.109 50.16 105.159 49.8333 105.672 49.18C106.186 48.5267 106.442 47.2433 106.442 45.33V34.83C106.442 32.2167 105.952 30.3033 104.972 29.09C104.039 27.83 102.546 27.2 100.492 27.2C99.2789 27.2 98.0423 27.48 96.7823 28.04C95.5223 28.6 94.3789 29.3467 93.3523 30.28V45.33C93.3523 47.2433 93.6089 48.5267 94.1223 49.18C94.6356 49.8333 95.6856 50.16 97.2723 50.16C97.4123 50.16 97.4823 50.3 97.4823 50.58C97.4823 50.86 97.4123 51 97.2723 51C96.1056 51 95.1956 50.9767 94.5423 50.93L90.4823 50.86L86.4223 50.93C85.7689 50.9767 84.8589 51 83.6923 51C83.5523 51 83.4823 50.86 83.4823 50.58C83.4823 50.3 83.5523 50.16 83.6923 50.16C85.2789 50.16 86.3289 49.8333 86.8423 49.18C87.3556 48.5267 87.6123 47.2433 87.6123 45.33V31.96C87.6123 30.4667 87.4256 29.37 87.0523 28.67C86.7256 27.97 86.1656 27.62 85.3723 27.62C84.6723 27.62 83.5056 27.97 81.8723 28.67H81.8023C81.6156 28.67 81.4756 28.5533 81.3823 28.32C81.2889 28.0867 81.3123 27.9467 81.4523 27.9L90.6223 23.42C90.9023 23.3267 91.0656 23.28 91.1123 23.28C91.5789 23.28 92.0456 23.8167 92.5123 24.89C93.0256 25.9167 93.3056 27.27 93.3523 28.95C96.6189 25.0767 100.166 23.14 103.992 23.14C106.559 23.14 108.566 23.9333 110.012 25.52C111.459 27.06 112.182 29.16 112.182 31.82V45.33C112.182 47.2433 112.439 48.5267 112.952 49.18C113.466 49.8333 114.516 50.16 116.102 50.16ZM117.722 8.51C117.675 7.99666 118.352 7.48333 119.752 6.97C121.152 6.45666 122.389 6.2 123.462 6.2C124.209 6.2 124.559 6.36333 124.512 6.69L120.382 25.38C120.289 25.4733 120.079 25.5433 119.752 25.59C119.472 25.6367 119.332 25.59 119.332 25.45L117.722 8.51ZM148.134 46.52C148.274 46.52 148.391 46.6133 148.484 46.8C148.624 46.9867 148.624 47.1267 148.484 47.22C146.758 48.8533 145.124 50.0433 143.584 50.79C142.044 51.49 140.411 51.84 138.684 51.84C136.678 51.84 134.974 51.3733 133.574 50.44C132.221 49.46 131.544 47.85 131.544 45.61V29.79C131.544 28.25 131.288 27.2233 130.774 26.71C130.308 26.1967 129.374 25.94 127.974 25.94C127.928 25.94 127.858 25.8933 127.764 25.8C127.718 25.66 127.694 25.52 127.694 25.38C127.694 25.24 127.718 25.1233 127.764 25.03C127.858 24.89 127.928 24.82 127.974 24.82C132.361 24.6333 135.114 22.7433 136.234 19.15C136.328 18.9633 136.514 18.87 136.794 18.87C137.121 18.87 137.284 18.9633 137.284 19.15V24.68C139.478 24.6333 142.581 24.4 146.594 23.98C146.688 23.98 146.781 24.1667 146.874 24.54C147.014 24.8667 147.084 25.24 147.084 25.66C147.084 26.08 146.991 26.5 146.804 26.92C146.664 27.34 146.501 27.5267 146.314 27.48C143.701 26.8733 140.691 26.5 137.284 26.36V43.3C137.284 45.12 137.728 46.4733 138.614 47.36C139.548 48.2 140.831 48.62 142.464 48.62C144.424 48.62 146.268 47.9433 147.994 46.59L148.134 46.52ZM190.295 26.43C194.121 26.85 197.178 28.1333 199.465 30.28C201.751 32.4267 202.895 35.0867 202.895 38.26C202.895 40.6867 202.218 42.9033 200.865 44.91C199.558 46.87 197.715 48.4333 195.335 49.6C193.001 50.72 190.388 51.28 187.495 51.28C186.141 51.28 184.578 51.21 182.805 51.07C182.198 51.0233 181.428 50.9767 180.495 50.93C179.561 50.8833 178.511 50.86 177.345 50.86L172.305 50.93C171.418 50.9767 170.205 51 168.665 51C168.525 51 168.455 50.86 168.455 50.58C168.455 50.3 168.525 50.16 168.665 50.16C170.158 50.16 171.278 50.0433 172.025 49.81C172.771 49.53 173.285 49.0633 173.565 48.41C173.891 47.7567 174.055 46.73 174.055 45.33V12.92C174.055 11.5667 173.891 10.5633 173.565 9.91C173.285 9.21 172.771 8.74333 172.025 8.51C171.325 8.23 170.228 8.09 168.735 8.09C168.641 8.09 168.595 7.95 168.595 7.67C168.595 7.39 168.641 7.25 168.735 7.25L172.375 7.32C174.428 7.41333 176.085 7.46 177.345 7.46C178.651 7.46 180.028 7.39 181.475 7.25C181.988 7.20333 182.595 7.15666 183.295 7.11C184.041 7.06333 184.881 7.04 185.815 7.04C189.968 7.04 193.141 7.83333 195.335 9.42C197.528 11.0067 198.625 13.2467 198.625 16.14C198.625 18.38 197.901 20.41 196.455 22.23C195.008 24.0033 192.955 25.4033 190.295 26.43ZM184.625 8.44C183.131 8.44 182.105 8.74333 181.545 9.35C181.031 9.95667 180.775 11.1933 180.775 13.06V26.36L183.715 26.43C186.468 26.43 188.545 25.5433 189.945 23.77C191.345 21.95 192.045 19.6167 192.045 16.77C192.045 14.11 191.415 12.0567 190.155 10.61C188.895 9.16333 187.051 8.44 184.625 8.44ZM186.375 49.67C192.675 49.67 195.825 46.4267 195.825 39.94C195.825 36.3933 194.891 33.5467 193.025 31.4C191.205 29.2533 188.521 28.18 184.975 28.18C183.295 28.18 181.895 28.2267 180.775 28.32V45.33C180.775 46.4033 180.915 47.2433 181.195 47.85C181.475 48.4567 182.011 48.9233 182.805 49.25C183.598 49.53 184.788 49.67 186.375 49.67ZM233.065 46.59C233.158 46.59 233.252 46.6833 233.345 46.87C233.485 47.0567 233.508 47.1967 233.415 47.29C231.688 48.8767 229.962 50.0433 228.235 50.79C226.508 51.49 224.642 51.84 222.635 51.84C219.788 51.84 217.315 51.21 215.215 49.95C213.162 48.69 211.575 47.0333 210.455 44.98C209.382 42.9267 208.845 40.71 208.845 38.33C208.845 35.5767 209.522 33.0567 210.875 30.77C212.228 28.4833 214.072 26.6867 216.405 25.38C218.785 24.0267 221.422 23.35 224.315 23.35C227.115 23.35 229.285 24.0267 230.825 25.38C232.365 26.7333 233.135 28.74 233.135 31.4C233.135 32.7533 232.855 33.43 232.295 33.43L215.215 33.5C215.168 33.92 215.145 34.55 215.145 35.39C215.145 39.4967 216.078 42.7633 217.945 45.19C219.858 47.57 222.565 48.76 226.065 48.76C227.372 48.76 228.468 48.62 229.355 48.34C230.242 48.0133 231.432 47.4533 232.925 46.66L233.065 46.59ZM221.795 24.75C220.068 24.75 218.645 25.4267 217.525 26.78C216.452 28.0867 215.728 29.9067 215.355 32.24L226.555 32.03C226.462 27.1767 224.875 24.75 221.795 24.75ZM263.474 14.67C263.474 16.3967 263.894 17.9367 264.734 19.29C265.621 20.5967 266.694 21.74 267.954 22.72C269.261 23.7 271.011 24.8667 273.204 26.22C275.584 27.7133 277.451 28.9967 278.804 30.07C280.204 31.1433 281.371 32.4733 282.304 34.06C283.284 35.6 283.774 37.42 283.774 39.52C283.774 41.9 283.144 44.0233 281.884 45.89C280.671 47.7567 278.921 49.2267 276.634 50.3C274.394 51.3267 271.827 51.84 268.934 51.84C266.974 51.84 264.944 51.5833 262.844 51.07C260.791 50.5567 259.227 49.9267 258.154 49.18C257.734 48.9 257.501 48.4567 257.454 47.85L257.034 37.21V37.14C257.034 36.9533 257.151 36.86 257.384 36.86C257.617 36.8133 257.757 36.8833 257.804 37.07C259.344 40.9433 261.094 44.1167 263.054 46.59C265.061 49.0633 267.604 50.3 270.684 50.3C272.691 50.3 274.371 49.7633 275.724 48.69C277.077 47.57 277.754 45.7267 277.754 43.16C277.754 41.1067 277.287 39.31 276.354 37.77C275.467 36.23 274.347 34.9467 272.994 33.92C271.687 32.8933 269.891 31.6333 267.604 30.14C265.364 28.6933 263.614 27.48 262.354 26.5C261.094 25.4733 260.021 24.2367 259.134 22.79C258.247 21.2967 257.804 19.57 257.804 17.61C257.804 15.1833 258.481 13.13 259.834 11.45C261.187 9.77 262.937 8.53333 265.084 7.74C267.277 6.9 269.564 6.48 271.944 6.48C273.531 6.48 275.117 6.64333 276.704 6.97C278.291 7.25 279.621 7.62333 280.694 8.09C281.394 8.37 281.744 8.81333 281.744 9.42L281.954 18.94C281.954 19.08 281.814 19.1733 281.534 19.22C281.301 19.2667 281.161 19.22 281.114 19.08C280.181 16.2333 278.921 13.6667 277.334 11.38C275.794 9.04666 273.461 7.88 270.334 7.88C268.234 7.88 266.554 8.48666 265.294 9.7C264.081 10.9133 263.474 12.57 263.474 14.67ZM321.493 50.16C321.679 50.16 321.773 50.3 321.773 50.58C321.773 50.86 321.679 51 321.493 51C320.326 51 319.393 50.9767 318.693 50.93L314.703 50.86L310.713 50.93C310.013 50.9767 309.079 51 307.913 51C307.773 51 307.703 50.86 307.703 50.58C307.703 50.3 307.773 50.16 307.913 50.16C309.453 50.16 310.503 49.8333 311.063 49.18C311.623 48.48 311.903 47.1967 311.903 45.33V34.9C311.903 29.7667 309.896 27.2 305.883 27.2C304.623 27.2 303.339 27.5033 302.033 28.11C300.773 28.67 299.653 29.44 298.673 30.42V45.33C298.673 47.2433 298.929 48.5267 299.443 49.18C300.003 49.8333 301.076 50.16 302.663 50.16C302.849 50.16 302.943 50.3 302.943 50.58C302.943 50.86 302.849 51 302.663 51C301.496 51 300.563 50.9767 299.863 50.93L295.873 50.86L291.883 50.93C291.183 50.9767 290.249 51 289.083 51C288.943 51 288.873 50.86 288.873 50.58C288.873 50.3 288.943 50.16 289.083 50.16C290.623 50.16 291.673 49.8333 292.233 49.18C292.793 48.48 293.073 47.1967 293.073 45.33V9.56C293.073 7.92666 292.909 6.76 292.583 6.06C292.256 5.31333 291.719 4.94 290.973 4.94C290.273 4.94 289.316 5.22 288.103 5.78H288.033C287.893 5.78 287.753 5.66333 287.613 5.43C287.519 5.15 287.543 4.98667 287.683 4.94L297.413 0.319997L297.763 0.249998C297.949 0.249998 298.136 0.343332 298.323 0.529999C298.556 0.716666 298.673 0.879999 298.673 1.02V29.02C302.033 25.1467 305.603 23.21 309.383 23.21C311.949 23.21 313.933 23.98 315.333 25.52C316.779 27.06 317.503 29.16 317.503 31.82V45.33C317.503 47.2433 317.759 48.5267 318.273 49.18C318.833 49.8333 319.906 50.16 321.493 50.16ZM353.543 23.98C353.636 23.98 353.683 24.12 353.683 24.4C353.683 24.68 353.636 24.82 353.543 24.82C352.143 24.82 350.929 25.38 349.903 26.5C348.923 27.62 348.013 29.3233 347.173 31.61L339.123 52.96C337.443 57.44 335.833 60.9633 334.293 63.53C332.753 66.0967 331.189 67.9167 329.603 68.99C328.016 70.11 326.266 70.67 324.353 70.67C323.046 70.67 322.043 70.39 321.343 69.83C320.596 69.3167 320.223 68.5233 320.223 67.45C320.223 66.5167 320.526 65.7933 321.133 65.28C321.693 64.8133 322.393 64.58 323.233 64.58C323.793 64.58 324.259 64.65 324.633 64.79C325.053 64.9767 325.473 65.21 325.893 65.49C326.359 65.77 326.756 65.98 327.083 66.12C327.456 66.26 327.899 66.33 328.413 66.33C329.486 66.33 330.466 65.8867 331.353 65C332.286 64.16 333.243 62.7367 334.223 60.73C335.249 58.7233 336.463 55.8767 337.863 52.19L326.803 29.79C325.776 27.7833 324.959 26.4533 324.353 25.8C323.793 25.1467 323.093 24.82 322.253 24.82C322.113 24.82 322.043 24.68 322.043 24.4C322.043 24.12 322.113 23.98 322.253 23.98C323.466 23.98 324.399 24.0033 325.053 24.05L327.783 24.12L332.543 24.05C333.243 24.0033 334.199 23.98 335.413 23.98C335.553 23.98 335.623 24.12 335.623 24.4C335.623 24.68 335.553 24.82 335.413 24.82C334.153 24.82 333.219 24.9367 332.613 25.17C332.053 25.3567 331.773 25.73 331.773 26.29C331.773 26.71 331.889 27.13 332.123 27.55L340.663 45.19L345.353 31.61C345.773 30.3967 345.983 29.37 345.983 28.53C345.983 26.0567 344.419 24.82 341.293 24.82C341.199 24.82 341.153 24.68 341.153 24.4C341.153 24.12 341.199 23.98 341.293 23.98C342.553 23.98 343.509 24.0033 344.163 24.05L348.363 24.12L351.093 24.05C351.606 24.0033 352.423 23.98 353.543 23.98Z" fill="#4971FF"/>
</svg>

<svg xmlns="http://www.w3.org/2000/svg" width="354" height="71" fill="none" xmlns:v="https://vecta.io/nano"><path d="M20.299 51.28c-1.447 0-3.127-.07-5.04-.21l-2.66-.14-3.64-.07-4.97.07-3.71.07c-.093 0-.14-.14-.14-.42s.047-.42.14-.42c1.587 0 2.73-.117 3.43-.35.747-.233 1.26-.677 1.54-1.33.28-.7.42-1.75.42-3.15V12.92c0-1.4-.14-2.427-.42-3.08-.233-.653-.723-1.097-1.47-1.33-.747-.28-1.89-.42-3.43-.42-.093 0-.14-.14-.14-.42s.047-.42.14-.42l3.71.07 4.9.14 5.67-.21 4.69-.14c4.76 0 8.983.933 12.67 2.8s6.533 4.41 8.54 7.63c2.053 3.22 3.08 6.837 3.08 10.85 0 4.527-1.05 8.54-3.15 12.04-2.1 3.453-4.923 6.137-8.47 8.05-3.547 1.867-7.443 2.8-11.69 2.8zm-.7-1.4c3.22 0 6.067-.77 8.54-2.31 2.52-1.54 4.48-3.803 5.88-6.79 1.4-3.033 2.1-6.65 2.1-10.85 0-4.013-.677-7.63-2.03-10.85-1.307-3.267-3.173-5.833-5.6-7.7-2.427-1.913-5.25-2.87-8.47-2.87-1.96 0-3.477.117-4.55.35s-1.867.677-2.38 1.33c-.467.607-.7 1.563-.7 2.87v31.5c0 1.913.49 3.29 1.47 4.13.98.793 2.893 1.19 5.74 1.19zm43.63 2.03c-2.8 0-5.273-.653-7.42-1.96-2.147-1.353-3.803-3.15-4.97-5.39-1.167-2.287-1.75-4.76-1.75-7.42 0-3.033.747-5.6 2.24-7.7 1.54-2.147 3.477-3.733 5.81-4.76 2.38-1.073 4.807-1.61 7.28-1.61 2.847 0 5.32.677 7.42 2.03 2.147 1.353 3.78 3.15 4.9 5.39 1.12 2.193 1.68 4.55 1.68 7.07 0 2.8-.7 5.297-2.1 7.49-1.353 2.193-3.197 3.897-5.53 5.11-2.333 1.167-4.853 1.75-7.56 1.75zm2.1-1.4c2.053 0 3.617-.91 4.69-2.73 1.12-1.82 1.68-4.48 1.68-7.98 0-3.127-.443-5.857-1.33-8.19-.84-2.333-2.007-4.107-3.5-5.32-1.447-1.213-3.033-1.82-4.76-1.82-2.1 0-3.687.863-4.76 2.59s-1.61 4.27-1.61 7.63c0 3.033.397 5.763 1.19 8.19.84 2.38 1.983 4.247 3.43 5.6 1.493 1.353 3.15 2.03 4.97 2.03zm50.773-.35c.14 0 .21.14.21.42s-.07.42-.21.42c-1.166 0-2.076-.023-2.73-.07l-4.06-.07-3.99.07c-.7.047-1.633.07-2.8.07-.14 0-.21-.14-.21-.42s.07-.42.21-.42c1.587 0 2.637-.327 3.15-.98s.77-1.937.77-3.85v-10.5c0-2.613-.49-4.527-1.47-5.74-.933-1.26-2.426-1.89-4.48-1.89-1.213 0-2.45.28-3.71.84a12.79 12.79 0 0 0-3.43 2.24v15.05c0 1.913.257 3.197.77 3.85s1.563.98 3.15.98c.14 0 .21.14.21.42s-.07.42-.21.42a40.73 40.73 0 0 1-2.73-.07l-4.06-.07-4.06.07c-.653.047-1.563.07-2.73.07-.14 0-.21-.14-.21-.42s.07-.42.21-.42c1.587 0 2.637-.327 3.15-.98s.77-1.937.77-3.85V31.96c0-1.493-.187-2.59-.56-3.29-.327-.7-.887-1.05-1.68-1.05-.7 0-1.867.35-3.5 1.05h-.07c-.187 0-.327-.117-.42-.35s-.07-.373.07-.42l9.17-4.48c.28-.093.443-.14.49-.14.467 0 .933.537 1.4 1.61.513 1.027.793 2.38.84 4.06 3.267-3.873 6.814-5.81 10.64-5.81 2.567 0 4.574.793 6.02 2.38 1.447 1.54 2.17 3.64 2.17 6.3v13.51c0 1.913.257 3.197.77 3.85s1.564.98 3.15.98zm1.62-41.65c-.047-.513.63-1.027 2.03-1.54s2.637-.77 3.71-.77c.747 0 1.097.163 1.05.49l-4.13 18.69c-.093.093-.303.163-.63.21-.28.047-.42 0-.42-.14l-1.61-16.94zm30.412 38.01c.14 0 .257.093.35.28.14.187.14.327 0 .42-1.726 1.633-3.36 2.823-4.9 3.57-1.54.7-3.173 1.05-4.9 1.05-2.006 0-3.71-.467-5.11-1.4-1.353-.98-2.03-2.59-2.03-4.83V29.79c0-1.54-.256-2.567-.77-3.08-.466-.513-1.4-.77-2.8-.77-.046 0-.116-.047-.21-.14a1.34 1.34 0 0 1-.07-.42c0-.14.024-.257.07-.35.094-.14.164-.21.21-.21 4.387-.187 7.14-2.077 8.26-5.67.094-.187.28-.28.56-.28.327 0 .49.093.49.28v5.53c2.194-.047 5.297-.28 9.31-.7.094 0 .187.187.28.56a2.82 2.82 0 0 1 .21 1.12c0 .42-.093.84-.28 1.26-.14.42-.303.607-.49.56-2.613-.607-5.623-.98-9.03-1.12V43.3c0 1.82.444 3.173 1.33 4.06.934.84 2.217 1.26 3.85 1.26 1.96 0 3.804-.677 5.53-2.03l.14-.07zm42.161-20.09c3.826.42 6.883 1.703 9.17 3.85s3.43 4.807 3.43 7.98a11.64 11.64 0 0 1-2.03 6.65c-1.307 1.96-3.15 3.523-5.53 4.69-2.334 1.12-4.947 1.68-7.84 1.68-1.354 0-2.917-.07-4.69-.21a89.52 89.52 0 0 0-2.31-.14c-.934-.047-1.984-.07-3.15-.07l-5.04.07c-.887.047-2.1.07-3.64.07-.14 0-.21-.14-.21-.42s.07-.42.21-.42c1.493 0 2.613-.117 3.36-.35.746-.28 1.26-.747 1.54-1.4.326-.653.49-1.68.49-3.08V12.92c0-1.353-.164-2.357-.49-3.01-.28-.7-.794-1.167-1.54-1.4-.7-.28-1.797-.42-3.29-.42-.094 0-.14-.14-.14-.42s.046-.42.14-.42l3.64.07c2.053.093 3.71.14 4.97.14 1.306 0 2.683-.07 4.13-.21l1.82-.14c.746-.047 1.586-.07 2.52-.07 4.153 0 7.326.793 9.52 2.38s3.29 3.827 3.29 6.72c0 2.24-.724 4.27-2.17 6.09-1.447 1.773-3.5 3.173-6.16 4.2zm-5.67-17.99c-1.494 0-2.52.303-3.08.91-.514.607-.77 1.843-.77 3.71v13.3l2.94.07c2.753 0 4.83-.887 6.23-2.66 1.4-1.82 2.1-4.153 2.1-7 0-2.66-.63-4.713-1.89-6.16s-3.104-2.17-5.53-2.17zm1.75 41.23c6.3 0 9.45-3.243 9.45-9.73 0-3.547-.934-6.393-2.8-8.54-1.82-2.147-4.504-3.22-8.05-3.22-1.68 0-3.08.047-4.2.14v17.01c0 1.073.14 1.913.42 2.52s.816 1.073 1.61 1.4c.793.28 1.983.42 3.57.42zm46.69-3.08c.093 0 .187.093.28.28.14.187.163.327.07.42-1.727 1.587-3.453 2.753-5.18 3.5-1.727.7-3.593 1.05-5.6 1.05-2.847 0-5.32-.63-7.42-1.89-2.053-1.26-3.64-2.917-4.76-4.97-1.073-2.053-1.61-4.27-1.61-6.65 0-2.753.677-5.273 2.03-7.56a14.6 14.6 0 0 1 5.53-5.39c2.38-1.353 5.017-2.03 7.91-2.03 2.8 0 4.97.677 6.51 2.03s2.31 3.36 2.31 6.02c0 1.353-.28 2.03-.84 2.03l-17.08.07c-.047.42-.07 1.05-.07 1.89 0 4.107.933 7.373 2.8 9.8 1.913 2.38 4.62 3.57 8.12 3.57 1.307 0 2.403-.14 3.29-.42.887-.327 2.077-.887 3.57-1.68l.14-.07zm-11.27-21.84c-1.727 0-3.15.677-4.27 2.03-1.073 1.307-1.797 3.127-2.17 5.46l11.2-.21c-.093-4.853-1.68-7.28-4.76-7.28zm41.679-10.08c0 1.727.42 3.267 1.26 4.62a14.98 14.98 0 0 0 3.22 3.43c1.307.98 3.057 2.147 5.25 3.5 2.38 1.493 4.247 2.777 5.6 3.85 1.4 1.073 2.567 2.403 3.5 3.99.98 1.54 1.47 3.36 1.47 5.46 0 2.38-.63 4.503-1.89 6.37-1.213 1.867-2.963 3.337-5.25 4.41-2.24 1.027-4.807 1.54-7.7 1.54-1.96 0-3.99-.257-6.09-.77-2.053-.513-3.617-1.143-4.69-1.89-.42-.28-.653-.723-.7-1.33l-.42-10.64v-.07c0-.187.117-.28.35-.28.233-.047.373.023.42.21 1.54 3.873 3.29 7.047 5.25 9.52 2.007 2.473 4.55 3.71 7.63 3.71 2.007 0 3.687-.537 5.04-1.61 1.353-1.12 2.03-2.963 2.03-5.53 0-2.053-.467-3.85-1.4-5.39-.887-1.54-2.007-2.823-3.36-3.85-1.307-1.027-3.103-2.287-5.39-3.78-2.24-1.447-3.99-2.66-5.25-3.64-1.26-1.027-2.333-2.263-3.22-3.71-.887-1.493-1.33-3.22-1.33-5.18 0-2.427.677-4.48 2.03-6.16s3.103-2.917 5.25-3.71c2.193-.84 4.48-1.26 6.86-1.26a23.55 23.55 0 0 1 4.76.49c1.587.28 2.917.653 3.99 1.12.7.28 1.05.723 1.05 1.33l.21 9.52c0 .14-.14.233-.42.28-.233.047-.373 0-.42-.14-.933-2.847-2.193-5.413-3.78-7.7-1.54-2.333-3.873-3.5-7-3.5-2.1 0-3.78.607-5.04 1.82-1.213 1.213-1.82 2.87-1.82 4.97zm58.019 35.49c.186 0 .28.14.28.42s-.094.42-.28.42c-1.167 0-2.1-.023-2.8-.07l-3.99-.07-3.99.07c-.7.047-1.634.07-2.8.07-.14 0-.21-.14-.21-.42s.07-.42.21-.42c1.54 0 2.59-.327 3.15-.98.56-.7.84-1.983.84-3.85V34.9c0-5.133-2.007-7.7-6.02-7.7-1.26 0-2.544.303-3.85.91-1.26.56-2.38 1.33-3.36 2.31v14.91c0 1.913.256 3.197.77 3.85.56.653 1.633.98 3.22.98.186 0 .28.14.28.42s-.094.42-.28.42c-1.167 0-2.1-.023-2.8-.07l-3.99-.07-3.99.07c-.7.047-1.634.07-2.8.07-.14 0-.21-.14-.21-.42s.07-.42.21-.42c1.54 0 2.59-.327 3.15-.98.56-.7.84-1.983.84-3.85V9.56c0-1.633-.164-2.8-.49-3.5-.327-.747-.864-1.12-1.61-1.12-.7 0-1.657.28-2.87.84h-.07c-.14 0-.28-.117-.42-.35-.094-.28-.07-.443.07-.49l9.73-4.62.35-.07c.186 0 .373.093.56.28.233.187.35.35.35.49v28c3.36-3.873 6.93-5.81 10.71-5.81 2.566 0 4.55.77 5.95 2.31 1.446 1.54 2.17 3.64 2.17 6.3v13.51c0 1.913.256 3.197.77 3.85.56.653 1.633.98 3.22.98zm32.05-26.18c.093 0 .14.14.14.42s-.047.42-.14.42c-1.4 0-2.614.56-3.64 1.68-.98 1.12-1.89 2.823-2.73 5.11l-8.05 21.35c-1.68 4.48-3.29 8.003-4.83 10.57s-3.104 4.387-4.69 5.46c-1.587 1.12-3.337 1.68-5.25 1.68-1.307 0-2.31-.28-3.01-.84-.747-.513-1.12-1.307-1.12-2.38 0-.933.303-1.657.91-2.17.56-.467 1.26-.7 2.1-.7.56 0 1.026.07 1.4.21a8.5 8.5 0 0 1 1.26.7c.466.28.863.49 1.19.63.373.14.816.21 1.33.21 1.073 0 2.053-.443 2.94-1.33.933-.84 1.89-2.263 2.87-4.27 1.026-2.007 2.24-4.853 3.64-8.54l-11.06-22.4c-1.027-2.007-1.844-3.337-2.45-3.99a2.65 2.65 0 0 0-2.1-.98c-.14 0-.21-.14-.21-.42s.07-.42.21-.42c1.213 0 2.146.023 2.8.07l2.73.07 4.76-.07c.7-.047 1.656-.07 2.87-.07.14 0 .21.14.21.42s-.07.42-.21.42c-1.26 0-2.194.117-2.8.35-.56.187-.84.56-.84 1.12 0 .42.116.84.35 1.26l8.54 17.64 4.69-13.58c.42-1.213.63-2.24.63-3.08 0-2.473-1.564-3.71-4.69-3.71-.094 0-.14-.14-.14-.42s.046-.42.14-.42c1.26 0 2.216.023 2.87.07l4.2.07 2.73-.07c.513-.047 1.33-.07 2.45-.07z" fill="#4971ff"/></svg>
